!!!COM: Corelli, Arcangelo
!!!OPR: Sonata da camera
!!!OPS: 4
!!!ONM: 7
!!!OMV: 5
!!!OTL: Giga
!!!OMD: Allegro
**kern	**cdata-harm	**fb	**kern	**kern
*part3	*above	*part3	*part2	*part1
*staff3	*	*	*staff2	*staff1
*I"Violone & Cembalo	*	*	*I"Violino II	*I"Violino I
*clefF4	*	*	*clefG2	*clefG2
*k[b-]	*	*	*k[b-]	*k[b-]
*F:	*F:	*	*F:	*F:
*M12/8	*	*	*M12/8	*M12/8
*MM192	*	*	*MM192	*MM192
=1	=1	=1	=1	=1
2.F	F.I{	.	2.a	(8ffL
.	.	.	.	8aa)
.	.	.	.	8ffJ
.	.	.	.	(8ccL
.	.	.	.	8ff)
.	.	.	.	8ccJ
4.BB-	IV	.	4.b-	(8ddL
.	.	.	.	8ff)
.	.	.	.	8ddJ
4.F	I	.	4.cc	(8aL
.	.	.	.	8cc)
.	.	.	.	8aJ
=2	=2	=2	=2	=2
4.D	IV6	6	4.f	(8b-L
.	.	.	.	8dd)
.	.	.	.	8b-J
4.E	V65	6 5	4.g	(8gL
.	.	.	.	8cc)
.	.	.	.	8gJ
2.F	I|IAC}{	.	2.c	(8aL
.	.	.	.	8cc)
.	.	.	.	8aJ
.	.	.	.	(8fL
.	.	.	.	8a)
.	.	.	.	8fJ
=3	=3	=3	=3	=3
*C:	*C:	*	*C:	*C:
2.E	V6	6	2.cc	(8gL
.	.	.	.	8cc)
.	.	.	.	8gJ
.	.	.	.	(8eL
.	.	.	.	8g)
.	.	.	.	8eJ
4.D	ii7	7	4.cc	(8fL
.	.	.	.	8a)
.	.	.	.	8fJ
4.G	V/V	n	4.bn	(8dL
.	.	.	.	8g)
.	.	.	.	8dJ
=4	=4	=4	=4	=4
2.C	I/V|IAC}{	.	4.cc	(8eL
.	.	.	.	8d)
.	.	.	.	8cJ
.	.	.	4.e	(8ccL
.	.	.	.	8dd)
.	.	.	.	8aJ
*F:	*F:	*	*F:	*F:
4.D	IV6	6	4.f	(8b-L
.	.	.	.	8dd)
.	.	.	.	8b-J
4.E	V65	6 5	4.g	(8gL
.	.	.	.	8cc)
.	.	.	.	8gJ
=5	=5	=5	=5	=5
2.F	I|IAC}{	.	4.c	(8aL
.	.	.	.	8g)
.	.	.	.	8fJ
.	.	.	4.a	(8ffL
.	.	.	.	8gg)
.	.	.	.	8ddJ
*B-:	*B-:	*	*B-:	*B-:
4.G	IV/IV	-6	4.b-	(8ee-XL
.	.	.	.	8gg)
.	.	.	.	8ee-J
4.A	viio/IV	-5	4.cc	(8ccL
.	.	.	.	8ff)
.	.	.	.	8ccJ
=6	=6	=6	=6	=6
2.B-	IV	5	4.f	(8ddL
.	.	.	.	8cc)
.	.	.	.	8b-J
.	ii6	6	2.b-	(8ddL
.	.	.	.	8gg)
.	.	.	.	8ffJ
*F:	*F:	*	*F:	*F:
4.c	V7	7	.	(8eeL
.	.	.	.	8dd)
.	.	.	.	8ccJ
4.d	vi	5	4.a	(8ffL
.	.	.	.	8gg)
.	.	.	.	8aaJ
=7	=7	=7	=7	=7
4.B-	ii65	6 5	[4.g	(8ddL
.	.	.	.	8ee)
.	.	.	.	8ffJ
4.c	V	.	4g]	(8ccL
.	.	.	.	8ff)
.	.	.	8cc	8eeJ
2.F	I|PAC}{	.	2.a	(8ffL
.	.	.	.	8cc)
.	.	.	.	8aJ
.	.	.	.	(8fL
.	.	.	.	8a)
.	.	.	.	8fJ
=8	=8	=8	=8	=8
2.E	V6	6	2.cc	(8gL
.	.	.	.	8e)
.	.	.	.	8gJ
.	.	.	.	(8ccL
.	.	.	.	8g)
.	.	.	.	8ccJ
2.F	I	.	2.cc	(8aL
.	.	.	.	8f)
.	.	.	.	8aJ
.	.	.	.	(8ccL
.	.	.	.	8ff)
.	.	.	.	8ccJ
=9	=9	=9	=9	=9
*C:	*C:	*	*C:	*C:
2.BBn	V.V6	6	2.g	(8ddL
.	.	.	.	8bn)
.	.	.	.	8ddJ
.	.	.	.	(8ggL
.	.	.	.	8dd)
.	.	.	.	8ggJ
4.C	I	.	4.g	(8eeL
.	.	.	.	8cc)
.	.	.	.	8eeJ
4.E	I6	6	4.gg	(8cccL
.	.	.	.	8ee)
.	.	.	.	8cccJ
=10	=10	=10	=10	=10
2.F	IV	5	4.cc	(8aaL
.	.	.	.	8ff)
.	.	.	.	8aaJ
.	ii6	6	2.ff	(8dddL
.	.	.	.	8ff)
.	.	.	.	8dddJ
4.G	V7	7 n	.	(8bbnL
.	.	.	.	8gg)
.	.	.	.	8bbJ
4.A	vi	5	4.ee	(8cccL
.	.	.	.	8ee)
.	.	.	.	8cccJ
=11	=11	=11	=11	=11
4.F	ii65	6 5	[4.dd	(8ffL
.	.	.	.	8bbn)
.	.	.	.	8cccJ
4.G	V	n	4dd]	(8ddL
.	.	.	.	8ccc)
.	.	.	8gg	8bbJ
2.C	I|PAC}	.	2.ee	2.ccT
=12:|!|:	=12:|!|:	=12:|!|:	=12:|!|:	=12:|!|:
*B-:	*B-:	*	*B-:	*B-:
2.A	I.I6{	6	2.cc	(8ffL
.	.	.	.	8aa)
.	.	.	.	8ffJ
.	.	.	.	(8ccL
.	.	.	.	8ff)
.	.	.	.	8ccJ
4.B-	IV	.	4.ff	(8ddL
.	.	.	.	8ff)
.	.	.	.	8ddJ
4.A	I6	6	4.f	(8ccL
.	.	.	.	8ff)
.	.	.	.	8ccJ
=13	=13	=13	=13	=13
4.B-	IV	.	2.r	(8ddL
.	.	.	.	8ff)
.	.	.	.	8ddJ
4.A	I6	6	.	(8ccL
.	.	.	.	8ff)
.	.	.	.	8ccJ
2.B-	IV	5	4.b-	(8ddL
.	.	.	.	8ff)
.	.	.	.	8ggJ
.	ii6	6	4.B-	(8ddL
.	.	.	.	8gg)
.	.	.	.	8ddJ
=14	=14	=14	=14	=14
*C:	*C:	*	*C:	*C:
4.c	V	.	2.r	(8eeL
.	.	.	.	8gg)
.	.	.	.	8eeJ
4.Bn	V6/V	6	.	(8ddL
.	.	.	.	8gg)
.	.	.	.	8ddJ
4.c	V	.	4.gg	(8eeL
.	.	.	.	8gg)
.	.	.	.	8eeJ
4.B	V6/V	6	4.g	(8ddL
.	.	.	.	8gg)
.	.	.	.	8ddJ
=15	=15	=15	=15	=15
4.c	V	.	2.r	(8eeL
.	.	.	.	8gg)
.	.	.	.	8eeJ
4.Bn	V6/V	6	.	(8ddL
.	.	.	.	8gg)
.	.	.	.	8ddJ
2.c	V	5	4.cc	(8eeL
.	.	.	.	8gg)
.	.	.	.	8aaJ
.	iii6	6	4.c	(8eeL
.	.	.	.	8aa)
.	.	.	.	8eeJ
=16	=16	=16	=16	=16
*d:	*d:	*	*d:	*d:
4.d	vi	.	2.r	(8ffL
.	.	.	.	8aa)
.	.	.	.	8ffJ
4.c#X	V6/vi	6	.	(8eeL
.	.	.	.	8aa)
.	.	.	.	8eeJ
4.d	vi	.	4.aa	(8ffL
.	.	.	.	8aa)
.	.	.	.	8ffJ
4.c#	V6/vi	6	4.a	(8eeL
.	.	.	.	8aa)
.	.	.	.	8eeJ
=17	=17	=17	=17	=17
4.d	vi	.	2.r	(8ffL
.	.	.	.	8aa)
.	.	.	.	8ffJ
4.c#X	V6/vi	6	.	(8eeL
.	.	.	.	8aa)
.	.	.	.	8eeJ
4.d	vi	.	4.dd	(8ffL
.	.	.	.	8aa)
.	.	.	.	8ffJ
4.cn	iii6	6	4.a	(8eeL
.	.	.	.	8aa)
.	.	.	.	8eeJ
=18	=18	=18	=18	=18
4.B-	IV	5	4.dd	(8ddL
.	.	.	.	8ff)
.	.	.	.	8bb-J
4.G	ii	.	4.bb-	(8ddL
.	.	.	.	8gg)
.	.	.	.	8bb-J
4.A	V/vi	#	4.ee	(8cc#XL
.	.	.	.	8ee)
.	.	.	.	8aaJ
4.F	vi6	6	4.ff	(8ddL
.	.	.	.	8aa)
.	.	.	.	8dddJ
=19	=19	=19	=19	=19
4.G	ii65/vi	6 5 n	[4.ee	(8bbnL
.	.	.	.	8ccc#X)
.	.	.	.	8dddJ
4.A	V/vi	#	4ee]	(8eeL
.	.	.	.	8ddd)
.	.	.	8aa	8ccc#J
2.D	i/vi|PAC}	.	2.ff	2.dd
=20	=20	=20	=20	=20
*F:	*F:	*	*F:	*F:
2.AA	I6{	6	2.cc	(8ffL
.	.	.	.	8aa)
.	.	.	.	8ffJ
.	.	.	.	(8ccL
.	.	.	.	8ff)
.	.	.	.	8ccJ
4.BB-	IV	.	4.b-	(8ddL
.	.	.	.	8ff)
.	.	.	.	8ddJ
4.F	I	.	4.cc	(8aL
.	.	.	.	8cc)
.	.	.	.	8aJ
=21	=21	=21	=21	=21
4.D	IV6	6	4.f	(8b-L
.	.	.	.	8dd)
.	.	.	.	8b-J
4.E	V65	6 5	4.g	(8gL
.	.	.	.	8cc)
.	.	.	.	8gJ
2.F	I|IAC}{	.	2.c	(8aL
.	.	.	.	8cc)
.	.	.	.	8aJ
.	.	.	.	(8fL
.	.	.	.	8a)
.	.	.	.	8fJ
=22	=22	=22	=22	=22
*C:	*C:	*	*C:	*C:
2.E	V65	6	2.cc	(8gL
.	.	.	.	8cc)
.	.	.	.	8gJ
.	.	.	.	(8eL
.	.	.	.	8g)
.	.	.	.	8eJ
4.D	ii7/V	7	4.cc	(8fL
.	.	.	.	8a)
.	.	.	.	8fJ
4.G	V/V	n	4.bn	(8dL
.	.	.	.	8g)
.	.	.	.	8dJ
=23	=23	=23	=23	=23
4.C	I/V|PAC}{	.	2.cc	(8eL
.	.	.	.	8d)
.	.	.	.	8cJ
*F:	*F:	*	*F:	*F:
4.AA	I6	6	.	(8fL
.	.	.	.	8A)
.	.	.	.	8fJ
4.BB-	ii6	6	4.g	(8dL
.	.	.	.	8B-)
.	.	.	.	8gJ
4.C	iii6	6	4.a	(8eL
.	.	.	.	8c)
.	.	.	.	8aJ
=24	=24	=24	=24	=24
4.D	IV6	6	4.b-	(8fL
.	.	.	.	8d)
.	.	.	.	8b-J
4.E	V6	6	4.cc	(8gL
.	.	.	.	8e)
.	.	.	.	8ccJ
4.F	I	.	4.cc	(8aL
.	.	.	.	8f)
.	.	.	.	8ccJ
4.BB-	ii6	6	4.r	(8ddL
.	.	.	.	8b-)
.	.	.	.	8ggJ
=25	=25	=25	=25	=25
4.C	V	.	4.cc	(8eeL
.	.	.	.	8cc)
.	.	.	.	8ffJ
4.CC	V7	7	4.b-	(8ffL
.	.	.	.	8gg)
.	.	.	.	8eeJ
4.F	I	.	4.a	(8ffL
.	.	.	.	8gg
.	.	.	.	8aaJ
4.E	IM2	4 2	4.r	8ffL
.	.	.	.	8gg
.	.	.	.	8aaJ
=26	=26	=26	=26	=26
4.D	vi	.	4.f	8ffL
.	.	.	.	8gg
.	.	.	.	8aaJ
4.C	IM43	6	4.a	8ffL
.	.	.	.	8gg
.	.	.	.	8aaJ
4.BB-	IVM7	.	4.d	8ffL
.	.	.	.	8gg
.	.	.	.	8aaJ
4.AA	I6	6	4.r	8ffL
.	.	.	.	8gg
.	.	.	.	8aaJ)
=27	=27	=27	=27	=27
4.BB-	ii65	6 5	[4.g	(8ddL
.	.	.	.	8ee)
.	.	.	.	8ffJ
4.C	V	.	4g]	(8ddL
.	.	.	.	8ff)
.	.	.	8cc	8eeJ
2.FF	I|PAC}	.	2.a	2.ff
=:|!	=:|!	=:|!	=:|!	=:|!
*-	*-	*-	*-	*-
!!!system-decoration: [{s1,s2},s3]
!!!YEM: CC BY-NC-SA 4.0; CCARH; DCML